!!!SOCIAL_FUNCTION:	songs used in the treatment of the sick
!!!PDT:	1929
!!!OTL: No_93_The_Morning_Star.krn
!!!REG: Southwest
!!!LANG: Non-Tone
!!!LING_GROUP: Uto-Aztecan
**kern
*staff1
=1-
*clefF4
*k[b-e-a-d-]
*M2/4
4E-\
12c\L
12c\
12c\J
=2||
*M3/4
4c\
4A-\
(12B-\L
12B-\)
12B-\J
=3||
*M2/4
4B-\
4A-\
=4||
*M3/4
8F\L
8E-\J
4E-\
4E-\
=5
12A-\L
12A-\
12A-\J
4F\
4E-\
=6||
*M3/8
8F\L
8E-\
8E-\J
=7||
*M2/4
8E-\L
8E-\J
4E-\
=8
*M3/4
4E-\
4r
8E-\L
8E-\J
=9||
*M2/4
4A-\
16F\
16r
8A-\
=10
4A-\
8E-\L
8E-\J
=11||
*M3/8
8E-\L
8E-\
8E-\J
=12||
*M3/4
4E-\
8C/
8r
8E-\L
8E-\J
=13||
*M3/8
8F\L
8E-\
8E-\J
=14||
*M3/4
8F\L
8E-\J
8E-\L
8E-\J
12E-\L
12E-\
12E-\J
=15||
*M2/4
4E-\
16C/
16r
8E-\
=16
12E-\L
12E-\
12E-\J
8E-\L
8E-\J
=17
4E-\
16C/
16r
8E-\
=18||
*M3/4
12E-\L
12E-\
12E-\J
4E-\
8E-\L
8E-\J
=19
*M2/4
4E-\
4r
==:|!
*-
